X: 7
T: Voyage to India
M: 2/4
L: 1/8
B: Goulding & Co. - Twenty Four Country Dances for the Year 1808 (London) p.4 #1
F: http://petrucci.mus.auth.gr/imglnks/usimg/7/7e/IMSLP351864-PMLP71783-goulding_24_dances_1808.pdf
Z: Transcribed and edited by Flynn Titford-Mock
Z: ABC's: AK/Fiddler's Companion
Z: Dance added 2015 by John Chambers  <jc:trillian.mit.edu>
K: C
% - - - - - - - - - - - - - - - - - - - - - - - - - - - - -
e/d/ |\
cc dd | e>fgg | ff ee | d/c/d/e/ dG |\
cc dd | efgg | afdB | c2 c :|!
|: e/f/ |\
gg a/g/^f/g/ | =ff g/f/e/f/ | ee f/e/d/e/ | ed d e/f/ |\
gadf | egce | fdcB | Bc c :|
% - - - - - - - - - - Dance description - - - - - - - - - -
%%begintext align
%%   1st Cu: lead down the middle up
%% again cast off one Cu: hands 4
%% round, & right & left.
%%endtext
